svgs/regular/couch.svg

<svg xmlns="http://www.w3.org/2000/svg" viewBox="0 0 640 512"><!-- Font Awesome Pro 6.0.0-alpha2 by @fontawesome - https://fontawesome.com License - https://fontawesome.com/license (Commercial License) --><path d="M576 224C540.654 224 512 252.654 512 288H128C128 252.654 99.346 224 64 224S0 252.654 0 288V448C0 465.674 14.326 480 32 480H96C113.674 480 128 465.674 128 448H512C512 465.674 526.326 480 544 480H608C625.674 480 640 465.674 640 448V288C640 252.654 611.348 224 576 224ZM80 432H48V288C48 279.178 55.178 272 64 272S80 279.178 80 288V432ZM512 400H128V336H512V400ZM592 432H560V288C560 279.178 567.178 272 576 272S592 279.178 592 288V432ZM88 192C101.25 192 112 181.25 112 168V152C112 112.312 144.297 80 184 80H456C495.703 80 528 112.312 528 152V168C528 181.25 538.75 192 552 192S576 181.25 576 168V152C576 85.844 522.172 32 456 32H184C117.828 32 64 85.844 64 152V168C64 181.25 74.75 192 88 192Z"/></svg>

<svg xmlns="http://www.w3.org/2000/svg" viewBox="0 0 640 512"><!--! Font Awesome Pro 6.0.0-alpha3 by @fontawesome - https://fontawesome.com License - https://fontawesome.com/license (Commercial License) --><path d="M576 224c-35.35 0-64 28.65-64 64h-384c0-35.35-28.65-64-64-64s-64 28.65-64 64v160c0 17.67 14.33 32 32 32h64c17.67 0 32-14.33 32-32h384c0 17.67 14.33 32 32 32h64c17.67 0 32-14.33 32-32V288C640 252.7 611.3 224 576 224zM80 432h-32V288c0-8.822 7.178-16 16-16S80 279.2 80 288V432zM512 400H128v-64h384V400zM592 432h-32V288c0-8.822 7.178-16 16-16s16 7.178 16 16V432zM88 192C101.3 192 112 181.3 112 168v-16c0-39.69 32.3-72 72-72h272c39.7 0 72 32.31 72 72v16C528 181.3 538.8 192 552 192S576 181.3 576 168v-16C576 85.84 522.2 32 456 32h-272C117.8 32 64 85.84 64 152v16C64 181.3 74.75 192 88 192z"/></svg>
